X: 303
T: 3. Lensiene Anglaise
T: Lensiene Anglaise
B: Robert Landrin "Potpourri fran\,cois des contre-danse ancienne tel quil se danse chez la Reine ..." 1760 p.30 #3 dance 10 #3
S: http://memory.loc.gov/cgi-bin/query/D?musdibib:2:./temp/~ammem_EbRS:
Z: 2014 John Chambers <jc:trillian.mit.edu>
M: 2/2
L: 1/8
K: G
% - - - - - - - - - - - - - - - - - - - - - - - - -
G2B2 |\
A2c2 B2d2 | G2c2 !+!B2AG | F2G2 A2B2 | !+!A4 G2B2 |\
A2c2 B2d2 | G2c2 !+!B2AG | F2GA B2!+!A2 | G4 :|
|: "4.F."d2ef |\
g2d2 edcB | A2G2 d2g2 | f2g2 agfe | d4 d2ef |\
g2d2 edcB | A2G2 Bcde | ABcd GABc | !+!A4 G2B2 |
A2c2 B2d2 | G2c2 !+!B2AG | F2G2 A2B2 | !+!A4 G2B2 |\
A2c2 B2d2 | G2c2 !+!B2AG | F2GA B2!+!A2 | G4 :|
% - - - - - - - - - - - - - - - - - - - - - - - - -

%%sep 1 1 500
%%sep 1 1 500
